dist/img/clients-logo/03.svg

<svg width="120" height="57" viewBox="0 0 120 57" fill="none" xmlns="http://www.w3.org/2000/svg">
<path d="M26.0002 46.3176C57.3323 32.9557 88.6667 19.5943 120 6.23299C106.997 6.21739 93.9938 6.20419 80.9906 6.19039C79.0892 8.70989 77.0839 11.566 75.291 13.7471C76.0374 11.2288 76.7833 8.70929 77.5273 6.19039C76.0506 6.17599 74.5746 6.16279 73.0949 6.14719C71.8919 9.57452 69.529 13.8671 67.5237 16.9974C66.6849 18.2611 66.5649 16.9284 66.8475 15.942C67.8315 12.6778 68.8161 9.41192 69.8032 6.14779C68.3535 6.17599 66.9039 6.20479 65.4542 6.23359C65.0054 7.79485 64.5542 9.35732 64.1042 10.9198L57.9845 18.8965C59.2362 14.6609 60.4884 10.4248 61.7425 6.18979H57.2243C56.4935 8.72249 55.7608 11.2546 55.0294 13.7885C53.7489 14.0975 52.4667 14.4071 51.1868 14.7179C52.0317 11.875 52.8753 9.0315 53.7207 6.18979C52.0881 6.17539 50.4566 6.16219 48.8222 6.14659C47.8663 9.36932 46.9087 12.592 45.9528 15.8148C42.9683 19.3327 39.9862 22.8525 37.0017 26.3692C36.6933 26.7358 36.083 27.0922 35.6678 27.0346C34.307 26.797 34.4276 23.5269 34.5608 21.2828C37.0947 20.2346 39.8104 18.5089 41.9843 16.3206C46.0794 12.4798 46.9033 6.18799 41.4785 6.18979C36.3657 6.23839 31.0518 11.767 29.148 20.5058C27.8285 21.0512 26.5541 21.485 24.898 22.2182C24.571 20.6186 23.8606 18.8407 22.2681 17.3334C27.9113 14.2391 34.3568 6.79521 30.7116 1.84142C27.9797 -1.58352 19.3442 -0.31567 13.9926 6.3584C13.5287 8.01866 13.0631 9.68013 12.5993 11.3404C12.9029 11.3464 13.2041 11.3542 13.5077 11.3614C19.0376 3.70569 23.8084 4.95794 23.8924 8.02586C23.9782 10.6858 20.3756 15.6846 15.6474 19.0195C17.2789 20.6672 18.3193 22.7199 18.6853 25.3804C8.68835 30.3972 0.225009 41.3644 0 49.2307C0.0702028 52.5668 1.15265 56.3236 4.77079 56.1976C13.2695 55.774 26.245 38.3385 25.3306 25.1673C26.5253 24.6045 27.5015 24.1437 28.6979 23.5809C28.3151 26.4556 28.89 33.4477 34.0706 31.752C38.0109 30.4158 41.8241 24.3507 44.8764 20.1415C43.9758 23.0691 43.0769 25.9966 42.1763 28.9241C43.9626 28.3613 45.75 27.7979 47.5363 27.2356C48.4237 24.1527 49.3106 21.0716 50.1962 17.9887C51.5337 17.6238 52.8699 17.2572 54.208 16.8906C53.3073 19.8883 52.4061 22.8861 51.5055 25.8838C53.1381 25.3486 54.7708 24.8139 56.4041 24.2787C58.4435 21.5774 60.483 18.8755 62.5261 16.1742C61.7011 20.5574 62.9257 22.0802 65.1638 21.884C67.6755 21.6302 69.7228 16.5114 71.3896 13.6835C70.9558 15.6576 70.2334 17.9965 70.3342 19.5511C71.6021 19.1287 72.8675 18.7069 74.1336 18.2845C76.3447 15.456 78.5533 12.6262 80.7632 9.79833H82.9995C82.3677 11.8396 81.7353 13.8791 81.1016 15.9198C82.6479 15.4272 84.196 14.9345 85.7452 14.4425C86.1952 12.8951 86.6471 11.3458 87.0959 9.79833L101.703 9.83974C77.0665 19.9021 52.4355 29.9657 27.8105 40.0275C27.2051 42.1258 26.6009 44.2199 25.996 46.3176H26.0002ZM39.556 9.36992C40.3444 9.74973 40.2304 11.08 39.9898 11.9566C39.577 13.9049 37.6575 16.6644 35.0378 18.1291C35.6762 15.0587 38.0001 8.78429 39.556 9.36992ZM11.6081 48.6241C7.5549 52.535 6.30745 50.2976 6.39146 47.7924C6.50906 40.1919 13.0445 32.8075 18.8534 28.6481C18.6025 35.7986 15.2676 44.9369 11.6081 48.6241Z" fill="white"/>
<path d="M79.3646 33.6271L78.0325 36.2024L80.2946 36.2144V44.3297L83.0187 44.3723L83.0487 33.6271" fill="white"/>
<path d="M88.1249 33.5773C85.5568 33.6067 84.0868 35.1127 84.031 37.2086C84.034 39.6435 85.87 41.0506 88.3787 40.6282C87.5195 41.8672 86.6627 43.1039 85.8034 44.3423H88.716C90.78 41.3152 92.2105 39.6663 92.1787 37.2932C92.2387 35.1901 90.8106 33.6139 88.1225 33.5773H88.1249ZM88.0625 38.8767C87.1421 38.8533 86.4148 38.0883 86.4364 37.1654C86.4617 36.245 87.2261 35.5178 88.1477 35.54C89.0682 35.5646 89.7954 36.3296 89.772 37.2506C89.748 38.1729 88.9799 38.9007 88.0619 38.8767" fill="white"/>
<path d="M92.8051 37.4492C92.8363 35.381 93.9788 33.6319 96.6675 33.6295C99.3562 33.6259 100.784 34.8457 100.784 36.8792C100.784 38.9619 99.1798 40.264 97.2381 42.1786C98.3505 42.169 99.5026 42.1798 100.616 42.1726C100.628 42.9041 100.603 43.6205 100.616 44.3507H92.4661C96.4425 39.5781 98.2437 37.688 98.2509 36.9212C98.2545 36.2354 97.5519 35.5922 96.8997 35.5922C96.2282 35.5922 95.4104 36.1382 95.4254 37.4474" fill="white"/>
<path d="M102.826 33.6313C102.629 35.6294 102.432 37.3958 102.234 39.3939L102.54 39.3921C103.973 38.5305 106.646 39.2529 106.642 40.7188C106.627 41.935 104.223 42.9569 102.024 41.0824C101.933 41.8354 101.842 42.5878 101.75 43.3415C102.429 44.1605 103.815 44.3573 104.979 44.3657C107.489 44.3087 109.252 42.4912 109.221 40.5322C109.258 38.6943 107.477 36.5582 104.642 37.4204C104.656 36.794 104.668 36.3986 104.683 35.7728C105.978 35.7578 107.32 35.774 108.615 35.7608C108.615 35.0569 108.567 34.3309 108.567 33.6289C106.647 33.6331 104.733 33.6271 102.825 33.6313" fill="white"/>
</svg>

<svg width="120" height="57" viewBox="0 0 120 57" fill="none" xmlns="http://www.w3.org/2000/svg"><path d="M26 46.318l94-40.085c-13.003-.016-26.006-.029-39.01-.043-1.9 2.52-3.906 5.376-5.699 7.557.746-2.518 1.492-5.038 2.236-7.557-1.476-.014-2.952-.027-4.432-.043-1.203 3.428-3.566 7.72-5.571 10.85-.84 1.264-.96-.069-.677-1.055l2.956-9.794-4.349.086-1.35 4.686-6.12 7.976c1.252-4.235 2.504-8.471 3.758-12.706h-4.518c-.73 2.532-1.463 5.065-2.195 7.599-1.28.309-2.562.618-3.842.929.845-2.843 1.688-5.687 2.534-8.528l-4.899-.043-2.87 9.668c-2.984 3.518-5.966 7.037-8.95 10.554-.309.367-.919.723-1.334.666-1.361-.238-1.24-3.508-1.107-5.752 2.534-1.048 5.25-2.774 7.423-4.962 4.095-3.841 4.92-10.133-.506-10.131-5.112.048-10.426 5.577-12.33 14.316-1.32.545-2.594.979-4.25 1.712-.327-1.6-1.037-3.377-2.63-4.885 5.643-3.094 12.089-10.538 8.444-15.492-2.732-3.425-11.368-2.157-16.72 4.517-.463 1.66-.929 3.322-1.393 4.982.304.006.605.014.909.021 5.53-7.655 10.3-6.403 10.384-3.335.086 2.66-3.516 7.659-8.245 10.994 1.632 1.647 2.672 3.7 3.038 6.36C8.688 30.397.225 41.364 0 49.23c.07 3.337 1.153 7.094 4.77 6.968 8.5-.424 21.475-17.86 20.56-31.03l3.368-1.587c-.383 2.875.192 9.867 5.373 8.171 3.94-1.336 7.753-7.401 10.805-11.61l-2.7 8.782 5.36-1.688c.888-3.083 1.775-6.164 2.66-9.247 1.338-.365 2.674-.732 4.012-1.098l-2.703 8.993 4.9-1.605c2.038-2.702 4.078-5.404 6.121-8.105-.825 4.383.4 5.906 2.638 5.71 2.511-.254 4.559-5.373 6.226-8.2-.434 1.974-1.157 4.313-1.056 5.867l3.8-1.266 6.63-8.487H83c-.632 2.042-1.265 4.081-1.898 6.122 1.546-.493 3.094-.986 4.643-1.477.45-1.548.902-3.097 1.35-4.645l14.608.042a554399.734 554399.734 0 00-73.892 30.188l-1.815 6.29H26zM39.556 9.37c.788.38.674 1.71.434 2.587-.413 1.948-2.333 4.707-4.952 6.172.638-3.07 2.962-9.345 4.518-8.76zM11.608 48.624c-4.053 3.911-5.3 1.674-5.217-.832.118-7.6 6.653-14.985 12.462-19.144-.25 7.15-3.585 16.289-7.245 19.976zm67.757-14.997l-1.332 2.575 2.262.012v8.116l2.724.042.03-10.745m5.076-.05c-2.568.03-4.038 1.536-4.094 3.632.003 2.434 1.839 3.842 4.348 3.42l-2.576 3.713h2.913c2.064-3.027 3.495-4.676 3.463-7.049.06-2.103-1.368-3.68-4.056-3.716h.002zm-.063 5.3a1.67 1.67 0 01-1.626-1.712 1.669 1.669 0 111.625 1.711m4.744-1.426c.031-2.069 1.174-3.818 3.862-3.82 2.69-.004 4.117 1.216 4.117 3.25 0 2.082-1.604 3.384-3.546 5.299 1.112-.01 2.265 0 3.378-.006.012.731-.013 1.447 0 2.178h-8.15c3.977-4.773 5.778-6.663 5.785-7.43.003-.686-.7-1.329-1.351-1.329-.672 0-1.49.546-1.475 1.855m7.401-3.816c-.197 1.998-.394 3.765-.592 5.763l.306-.002c1.433-.861 4.106-.14 4.102 1.327-.015 1.216-2.419 2.238-4.618.363l-.274 2.26c.679.819 2.065 1.015 3.229 1.024 2.51-.057 4.273-1.875 4.242-3.834.037-1.838-1.744-3.974-4.579-3.112.014-.626.026-1.021.041-1.647 1.295-.015 2.637.001 3.932-.012 0-.704-.048-1.43-.048-2.132-1.92.004-3.834-.002-5.742.002" fill="#fff"/></svg>
